!!!OTL: Die elfjaehrige Markgraefin.
!!!OTL-incipit: Uns ist gborn ein Kindelein
!!!ARE: Europa, Mitteleuropa, Deutschland
!!!YOR: 2, S. 298
!!    1609 gedruckt in Wolfenbuettel
!!!SCT: Q1053N
!!!YEM: Copyright 1995, estate of Helmut Schaffrath.
**kern	**text
*ICvox	*
*M6/4	*
*k[b-]	*
*F:	*
!LO:TX:a:t=Prätorius, Mus. Sion. 6 Nr.44	!
{2f	Uns
4g	iſt
=1	=1
2a	gborn
4b-	ein
(4a	Kin-
4g)	.
4a	-de-
=2	=2
2.f}	-lein
{2cc	von
4dd	einr
=3	=3
(4cc	Jung-
4dd)	.
4ee	-fraun
(4ff	rei-
4dd	.
4ee)	.
=4	=4
2.ff}	-ne,
{2f	Uns
4g	iſt
=5	=5
2a	gborn
4b-	ein
(4a	Kin-
4g)	.
4a	-de-
=6	=6
2.f}	-lein
{2cc	von
4dd	einr
=7	=7
(4cc	Jung-
4dd)	.
4ee	-fraun
(4ff	rei-
4dd	.
4ee)	.
=8	=8
2.ff}	-ne,
{2ff	Ma-
4gg	-rie
=9	=9
2ff	iſt
4ee	die
(4dd	Mut-
4cc)	.
4dd	-ter
=10	=10
2cc}	ſein,
{4a	ſein
2cc	Va-
4b-	-ter
=11	=11
(4a	Gott
4g)	.
4a	al-
(4f	-lei-
4d	.
4e)	.
=12	=12
2.f}	-ne.
==	==
!!!AGN: geistlich, Weihnachts - Lied
!! Melodievergleich zu Q0053B, anderes Lied
!!!ONB: ESAC (Essen Associative Code) Database: BALLADE
!!!AMT: compound duple
!!!AIN: vox
!!!EED: Helmut Schaffrath
!!!EEV: 1.0
!!!source: Deutsche Volkslieder mit ihren Melodien. Herausgegeben vom Deutschen Volksliedarchiv. Zweiter Band Balladen. Berlin 1939.
!!!page: 298
!!!ENC: Anna Maria Matuszewska
!!!EEV: 2025/02/17
*-	*-
